ligands/tridentate/triphos.svg

<svg height="62" viewBox="0 0 74 62" width="74" xmlns="http://www.w3.org/2000/svg"><text font-family="Helvetica" font-size="200" font-weight="bold" transform="matrix(.05 0 0 .05 20.622 45.399)">P</text><path d="m5233.24 7368.59-6-10.39 155.3-89.66 6 3.46v6.93z" transform="matrix(.05 0 0 .05 -233 -329)"/><text font-family="Helvetica" font-size="200" font-weight="bold" transform="matrix(.05 0 0 .05 33.092 23.799)">P</text><path d="m5394.54 7268.54-6 3.46-6-3.46v-181.51h12z" transform="matrix(.05 0 0 .05 -233 -329)"/><text font-family="Helvetica" font-size="200" font-weight="bold" transform="matrix(.05 0 0 .05 45.563 45.399)">P</text><path d="m5388.54 7278.93v-6.93l6-3.46 148.27 85.6-6 10.39z" transform="matrix(.05 0 0 .05 -233 -329)"/><path d="m5298.25 6955.55-2.87 11.65-206.77-50.99-5.63-13.75z" transform="matrix(.05 0 0 .05 -233 -329)"/><path d="m5485.69 6963.45-3.19-11.56 216.12-59.56-5.65 14.01z" transform="matrix(.05 0 0 .05 -233 -329)"/><text font-family="Arial" font-size="200" transform="matrix(.05 0 0 .05 33.092 9.382)">Ph</text><path d="m5394.54 6879.03h-12v-79.61h12z" transform="matrix(.05 0 0 .05 -233 -329)"/><path d="m5692.97 6906.34 5.65-14.01 164.56 277.7-14.77-1.39z" transform="matrix(.05 0 0 .05 -233 -329)"/><path d="m5848.41 7168.64 14.77 1.39-148.42 168.07-9-7.94z" transform="matrix(.05 0 0 .05 -233 -329)"/><text font-family="Arial" font-size="200" transform="matrix(.05 0 0 .05 45.563 59.782)">Ph</text><path d="m5631.96 7519.03h12v81.39h-12z" transform="matrix(.05 0 0 .05 -233 -329)"/><text font-family="Arial" font-size="200" transform="matrix(.05 0 0 .05 59.472 49.109)">Ph</text><path d="m5718.71 7443.85 3.1-11.59 104 27.86-3.11 11.59z" transform="matrix(.05 0 0 .05 -233 -329)"/><text font-family="Arial" font-size="200" transform="matrix(.05 0 0 .05 2.203 52.582)">Ph</text><path d="m5039.86 7468.65 5.98 10.4-85.34 49.09-5.98-10.4z" transform="matrix(.05 0 0 .05 -233 -329)"/><text font-family="Arial" font-size="200" transform="matrix(.05 0 0 .05 24.517 59.291)">Ph</text><g transform="matrix(.05 0 0 .05 -233 -329)"><path d="m5157.28 7491.83 11.6-3.07 24.72 93.38-11.61 3.07z"/><path d="m5064.47 7320.5-9.08 7.85-137.01-158.42 14.83-1.2z"/><path d="m4933.21 7168.73-14.83 1.2 164.6-267.47 5.63 13.75z"/><path d="m5274.51 7269.33a111.283 111.283 0 1 0 222.57 0 111.283 111.283 0 1 0 -222.57 0z" fill="#fa666a"/></g></svg>

<?xml version="1.0" standalone="no" ?>
<!DOCTYPE svg PUBLIC "-//W3C//DTD SVG 1.1//EN" "http://www.w3.org/Graphics/SVG/1.1/DTD/svg11.dtd">
<svg width="74px" height="62px" viewBox="0 0 74 62" style="background-color: #ffffff00" xmlns="http://www.w3.org/2000/svg" xmlns:xlink="http://www.w3.org/1999/xlink" version="1.1" >
<text x="0" y="0" stroke="none" fill="#000000" transform="matrix(0.05 0 0 0.05 20.6215 45.3986)" font-style="normal" font-weight="bold" font-size="200px" font-family="Helvetica" >
P</text>
<path stroke="none" fill="#000000" transform="matrix(0.05 0 0 0.05 -233 -329)" d="M 5233.24,7368.59 L 5227.24,7358.2 L 5382.54,7268.54 L 5388.54,7272 L 5388.54,7278.93 L 5233.24,7368.59 Z " />
<text x="0" y="0" stroke="none" fill="#000000" transform="matrix(0.05 0 0 0.05 33.0922 23.7986)" font-style="normal" font-weight="bold" font-size="200px" font-family="Helvetica" >
P</text>
<path stroke="none" fill="#000000" transform="matrix(0.05 0 0 0.05 -233 -329)" d="M 5394.54,7268.54 L 5388.54,7272 L 5382.54,7268.54 L 5382.54,7087.03 L 5394.54,7087.03 L 5394.54,7268.54 Z " />
<text x="0" y="0" stroke="none" fill="#000000" transform="matrix(0.05 0 0 0.05 45.563 45.3986)" font-style="normal" font-weight="bold" font-size="200px" font-family="Helvetica" >
P</text>
<path stroke="none" fill="#000000" transform="matrix(0.05 0 0 0.05 -233 -329)" d="M 5388.54,7278.93 L 5388.54,7272 L 5394.54,7268.54 L 5542.81,7354.14 L 5536.81,7364.53 L 5388.54,7278.93 Z " />
<path stroke="none" fill="#000000" transform="matrix(0.05 0 0 0.05 -233 -329)" d="M 5298.25,6955.55 L 5295.38,6967.2 L 5088.61,6916.21 L 5082.98,6902.46 L 5298.25,6955.55 Z " />
<path stroke="none" fill="#000000" transform="matrix(0.05 0 0 0.05 -233 -329)" d="M 5485.69,6963.45 L 5482.5,6951.89 L 5698.62,6892.33 L 5692.97,6906.34 L 5485.69,6963.45 Z " />
<text x="0" y="0" stroke="none" fill="#000000" transform="matrix(0.05 0 0 0.05 33.0922 9.38155)" font-style="normal" font-weight="normal" font-size="200px" font-family="Arial" >
Ph</text>
<path stroke="none" fill="#000000" transform="matrix(0.05 0 0 0.05 -233 -329)" d="M 5394.54,6879.03 L 5382.54,6879.03 L 5382.54,6799.42 L 5394.54,6799.42 L 5394.54,6879.03 Z " />
<path stroke="none" fill="#000000" transform="matrix(0.05 0 0 0.05 -233 -329)" d="M 5692.97,6906.34 L 5698.62,6892.33 L 5863.18,7170.03 L 5848.41,7168.64 L 5692.97,6906.34 Z " />
<path stroke="none" fill="#000000" transform="matrix(0.05 0 0 0.05 -233 -329)" d="M 5848.41,7168.64 L 5863.18,7170.03 L 5714.76,7338.1 L 5705.76,7330.16 L 5848.41,7168.64 Z " />
<text x="0" y="0" stroke="none" fill="#000000" transform="matrix(0.05 0 0 0.05 45.563 59.7815)" font-style="normal" font-weight="normal" font-size="200px" font-family="Arial" >
Ph</text>
<path stroke="none" fill="#000000" transform="matrix(0.05 0 0 0.05 -233 -329)" d="M 5631.96,7519.03 L 5643.96,7519.03 L 5643.96,7600.42 L 5631.96,7600.42 L 5631.96,7519.03 Z " />
<text x="0" y="0" stroke="none" fill="#000000" transform="matrix(0.05 0 0 0.05 59.4723 49.1085)" font-style="normal" font-weight="normal" font-size="200px" font-family="Arial" >
Ph</text>
<path stroke="none" fill="#000000" transform="matrix(0.05 0 0 0.05 -233 -329)" d="M 5718.71,7443.85 L 5721.81,7432.26 L 5825.81,7460.12 L 5822.7,7471.71 L 5718.71,7443.85 Z " />
<text x="0" y="0" stroke="none" fill="#000000" transform="matrix(0.05 0 0 0.05 2.20345 52.5815)" font-style="normal" font-weight="normal" font-size="200px" font-family="Arial" >
Ph</text>
<path stroke="none" fill="#000000" transform="matrix(0.05 0 0 0.05 -233 -329)" d="M 5039.86,7468.65 L 5045.84,7479.05 L 4960.5,7528.14 L 4954.52,7517.74 L 5039.86,7468.65 Z " />
<text x="0" y="0" stroke="none" fill="#000000" transform="matrix(0.05 0 0 0.05 24.5169 59.2909)" font-style="normal" font-weight="normal" font-size="200px" font-family="Arial" >
Ph</text>
<path stroke="none" fill="#000000" transform="matrix(0.05 0 0 0.05 -233 -329)" d="M 5157.28,7491.83 L 5168.88,7488.76 L 5193.6,7582.14 L 5181.99,7585.21 L 5157.28,7491.83 Z " />
<path stroke="none" fill="#000000" transform="matrix(0.05 0 0 0.05 -233 -329)" d="M 5064.47,7320.5 L 5055.39,7328.35 L 4918.38,7169.93 L 4933.21,7168.73 L 5064.47,7320.5 Z " />
<path stroke="none" fill="#000000" transform="matrix(0.05 0 0 0.05 -233 -329)" d="M 4933.21,7168.73 L 4918.38,7169.93 L 5082.98,6902.46 L 5088.61,6916.21 L 4933.21,7168.73 Z " />
<path stroke="none" fill="#fa666a" transform="matrix(0.05 0 0 0.05 -233 -329)" d="M 5274.51,7269.33 A 111.283,111.283 0 1 0 5497.08,7269.33 A 111.283,111.283 0 1 0 5274.51,7269.33 Z " />
</svg>
